!!!!SEGMENT: pl-wtm--r-1497_stefani-jozef--goral-spiewka.krn
!!!cenid: 18xx:2216
!!!COM: Stefani, Józef
!!!COM-rism: pe30024097
!!!CDT: 1800/04/16-1876/03/19
!!!CNT: Polish
!!!OTL: Góral Śpiewka
!!!PDT:
!!!AGN:
!!!SMS-siglum: PL-Wtm
!!!SMS-shelfmark: R 1497
!!!NIFC-rismID: 1001120228
!!!URL-scan: http://repozytorium.nifc.pl/skany/pl-wtm-nut--r1497
!!!ONB-nifc:
!!!SMS-variant:
!!!SMS-altvar:
**kern	**kern	**dynam	**kern	**text
*part2	*part2	*part2	*part1	*part1
*staff3	*staff2	*	*staff1	*staff1
*I"[Piano]	*I"[Piano]	*	*I"[Voice]	*
*clefF4	*clefG2	*	*clefG2	*
*k[b-e-]	*k[b-e-]	*	*k[b-e-]	*
*M2/4	*M2/4	*	*M2/4	*
=1	=1	=1	=1	=1
*all\right	*all\right	*	*all\right	*
*2\right	*2\right	*	*2\right	*
!	!LO:TX:t=P:problem:all\right:global	!	!	!
!	!LO:TX:a:i:t=Allegrissimo.	!	!	!
!	!	!LO:DY:rj	!	!
8G 8GG\	8ggg 8gg\	f	2ryy	.
8r	8r	.	.	.
8Bn 8BBn\	8fff 8ff\	.	.	.
8r	8r	.	.	.
=2	=2	=2	=2	=2
8c 8C\	8eee- 8ee-\	.	2ryy	.
8r	8r	.	.	.
8e- 8E-\	8ccc 8cc\	.	.	.
8r	8r	.	.	.
=3	=3	=3	=3	=3
8F 8FF/	8fff 8ff\	.	2ryy	.
8r	8r	.	.	.
8A 8AA\	8eee- 8ee-\	.	.	.
8r	8r	.	.	.
=4	=4	=4	=4	=4
8B- 8BB-\	8ddd 8dd\	.	2ryy	.
8r	8r	.	.	.
8d 8D\	8bb- 8b-\	.	.	.
8r	8r	.	.	.
!!LO:LB:g=original
=5	=5	=5	=5	=5
8e- 8E-\	8gg 8g\	.	2ryy	.
8r	8r	.	.	.
8c 8C\	8eee- 8ee-\	.	.	.
8r	8r	.	.	.
=6	=6	=6	=6	=6
8d 8D\	8ddd 8dd\	.	2ryy	.
8r	8r	.	.	.
8e- 8E-\	8ccc 8cc\	.	.	.
8r	8r	.	.	.
=7||	=7||	=7||	=7||	=7||
!	!LO:TX:a:i:t=Adagio.	!	!	!
[>2d [>2D\	2b- [<2g/	.	2ryy	.
=8	=8	=8	=8	=8
*	*^	*	*	*
2d] 2D\]	4a/	4g\]	.	2ryy	.
.	4dd/	4f#X\	.	.	.
*	*v	*v	*	*	*
!	!LO:TX:b:i:t=V&colon; S&colon;	!	!	!
!!LO:PB:g=original
=9||	=9||	=9||	=9||	=9||
!	!	!LO:DY:rj	!LO:TX:a:i:t=a tempo Imo	!
8G 8GG\	4r	p	8g/	Lud
8r	.	.	8r	.
4r	8bn 8g 8f/	.	8bn\	wy-
.	8r	.	8r	.
=10	=10	=10	=10	=10
8C 8CC/	4r	.	8cc\	-smu-
8r	.	.	8r	.
4r	8ee- 8g 8e-/	.	8ee-\	-kły,
.	8r	.	8r	.
=11	=11	=11	=11	=11
8F 8FF\	4r	.	8f/	ni-
8r	.	.	8r	.
4r	8a 8f 8e-/	.	8a/	-by
.	8r	.	8r	.
=12	=12	=12	=12	=12
8BB- 8BBB-/	4r	.	8b-\	jo-
8r	.	.	8r	.
4r	8dd 8f 8d/	.	8dd\	-dła,
.	8r	.	8r	.
=13	=13	=13	=13	=13
8E- 8EE-/	4r	.	8g/	Ni-
8r	.	.	8r	.
4r	8b- 8g 8e-/	.	8b-/	-by
.	8r	.	8r	.
!!LO:LB:g=original
=14	=14	=14	=14	=14
8E- 8EE-/	4r	.	8a/	gór-
8r	.	.	8r	.
4r	8b- 8g 8e-/	.	8b-\	-ski
.	8r	.	8r	.
=15	=15	=15	=15	=15
8BB- 8BBB-/	4r	.	8f/	po-
8r	.	.	8r	.
4r	8b- 8f 8d/	.	8b-/	-tok
.	8r	.	8r	.
=16	=16	=16	=16	=16
8BB- 8BBB-/	4r	.	8a\	szy-
8r	.	.	8r	.
4r	8b- 8f 8d/	.	8b-\	-bki,
.	8r	.	8r	.
=17	=17	=17	=17	=17
8E-\	8g 8e-/	.	8g/	Jak
8r	8r	.	8r	.
(>4c [>4G (<4C\	(>16ee-\LL	.	8ee-\	ptak
.	16ff\J	.	.	.
.	8ee-\J)	.	8r	.
=18	=18	=18	=18	=18
8Bn) 8G] 8F 8D\)	8dd\	.	8dd\	lek-
8r	8r	.	8r	.
(>4c (>4G (<4E-\	(>16cc\LL	.	8cc\	-ki,
.	16dd\J	.	.	.
.	8cc\J)	.	8r	.
!!LO:LB:g=original
=19	=19	=19	=19	=19
8F\)))	8a/	.	8a\	jak
8r	8r	.	8r	.
8FF/	8ff 8a 8f\	.	8ff\	pręt
8r	8r	.	8r	.
=20	=20	=20	=20	=20
(<4BB-/	(>4dd 4f/	.	4dd\	gi-
8D/)	8b- 8f/)	.	8b-\	-bki,
8r	8r	.	8r	.
=21	=21	=21	=21	=21
8E-\	8g 8e-/	.	4g/	Wie-
8r	8r	.	.	.
(>4c [>4G (<4C\	(>16ee-\LL	.	4ee-\	-cznie
.	16ff\J	.	.	.
.	8ee-\J)	.	.	.
=22	=22	=22	=22	=22
8Bn) 8G] 8F 8D\)	8dd\	.	4dd\	ni-
8r	8r	.	.	.
4c 4G 4E-\	(>16cc\LL	.	4cc\	-by
.	16dd\J	.	.	.
.	8cc\J)	.	.	.
=23	=23	=23	=23	=23
2c 2A 2F\	8r	.	4.ff\	mło-
.	(>16a\LL	.	.	.
.	16cc\JJ	.	.	.
.	8ff\)	.	.	.
.	8r	.	8a/	-dy
=24	=24	=24	=24	=24
4.d 4.B-\	8r	.	4cc\	mło-
.	(>16b-\LL	.	.	.
.	16dd\J	.	.	.
.	8bb-\J)	.	8b-\	-dzian!
8r	8r	.	8r	.
!!LO:LB:g=original
=25	=25	=25	=25	=25
!	!	!LO:DY:rj	!	!
8E-\	8g 8e-/	f	2r	.
8r	8r	.	.	.
(>4c [>4G (<4C^<\	(>16ee-\LL	.	.	.
.	16ff\J	.	.	.
.	8ee-\J)	.	.	.
=26	=26	=26	=26	=26
8Bn) 8G] 8F 8D\)	8dd\	.	2r	.
8r	8r	.	.	.
[>4c (>4G (<4E-^<\	(>16cc\LL	.	.	.
.	16dd\J	.	.	.
.	8cc\J)	.	.	.
=27	=27	=27	=27	=27
2c] 2A) 2F\)	(>16a\LL	.	2r	.
.	16b-\	.	.	.
.	16cc\	.	.	.
.	16dd\JJ	.	.	.
.	16ee-\LL	.	.	.
.	16ff\	.	.	.
.	16gg\	.	.	.
.	16aa\JJ	.	.	.
=28	=28	=28	=28	=28
4d 4B-\	4bb-\)	.	2r	.
4r	4r	p	.	.
=29	=29	=29	=29	=29
8F#X 8FF#X/	4r	.	8dd\	Strój
8r	.	.	8r	.
4r	8cc 8a 8d/	.	8cc\	ma
.	8r	.	8r	.
!!LO:LB:g=original
=30	=30	=30	=30	=30
8G 8GG\	4r	.	8b-/	Kró-
8r	.	.	8r	.
4r	8b- 8g 8d/	.	8g/	-tko
.	8r	.	8r	.
=31	=31	=31	=31	=31
8D 8DD/	4r	.	8f#X/	u-
8r	.	.	8r	.
4r	8a 8f#X 8d/	.	8a/	-ka-
.	8r	.	8r	.
=32	=32	=32	=32	=32
8G 8GG\	4r	.	8g/	-sa-
8r	.	.	8r	.
4r	8b- 8g 8d/	.	8b-/	-ny
.	8r	.	8r	.
=33	=33	=33	=33	=33
8En 8EEn/	4r	.	8cc\	To-
8r	.	.	8r	.
4r	8b- 8g 8c/	.	8b-\	-pór
.	8r	.	8r	.
=34	=34	=34	=34	=34
8F 8FF/	4r	.	8a/	ja-
8r	.	.	8r	.
4r	8a 8f 8c/	.	8f/	-sno
.	8r	.	8r	.
!!LO:LB:g=original
=35	=35	=35	=35	=35
8C 8CC/	4r	.	8en/	na-
8r	.	.	8r	.
4r	8g 8en 8c/	.	8g/	-bi-
.	8r	.	8r	.
=36	=36	=36	=36	=36
8F 8FF/	4r	.	8f/	-ia-
8r	.	.	8r	.
4r	8a 8f 8c/	.	8a/	-ny
.	8r	.	8r	.
=37	=37	=37	=37	=37
8F\	4r	.	8f/	A
8r	.	.	8r	.
8E-X\	8a 8f 8c/	.	8a/	sam
8r	8r	.	8r	.
=38	=38	=38	=38	=38
8D\	8b- 8f/	.	8b-\	wszy-
8r	8r	.	8r	.
8BB-/	8dd 8b- 8f/	.	8dd\	-stek
8r	8r	.	8r	.
=39	=39	=39	=39	=39
4AA/	4cc 4f\	.	4cc\	we-
4F 4FF/	4ff 4a 4f\	.	4ff\	-łną
!!LO:LB:g=original
=40	=40	=40	=40	=40
4.F 4.BB-\	4dd 4f/	.	4dd\	o-
.	8b- 8d/	.	8b-\	-dzian
8r	8r	.	8r	.
=41	=41	=41	=41	=41
8E-\	8g 8e-/	.	4g/	Wie-
8r	8r	.	.	.
(>4c [>4G (<4C\	(>16ee-\LL	.	4ee-\	-cznie
.	16ff\J	.	.	.
.	8ee-\J)	.	.	.
=42	=42	=42	=42	=42
8Bn) 8G] 8F 8D\)	8dd\	.	4dd\	ni-
8r	8r	.	.	.
4c 4G 4E-\	(>16cc\LL	.	4cc\	-by
.	16dd\J	.	.	.
.	8cc\J)	.	.	.
=43	=43	=43	=43	=43
2c 2A 2F\	8r	.	4.ff\	mło-
.	(>16a\LL	.	.	.
.	16cc\JJ	.	.	.
.	4ff\)	.	.	.
.	.	.	8a/	-dy
=44	=44	=44	=44	=44
4.d 4.B-\	8r	.	4cc\	mło-
.	(>16b-\LL	.	.	.
.	16dd\JJ	.	.	.
.	8bb-\)	.	8b-\	-dzian!
8r	8r	.	8r	.
!!LO:LB:g=original
=45	=45	=45	=45	=45
!	!	!LO:DY:rj	!	!
8E-\	8g 8e-/	f	2ryy	.
8r	8r	.	.	.
(>4c [>4G (<4C\	(>16ee-\LL	.	.	.
.	16ff\J	.	.	.
.	8ee-\J)	.	.	.
=46	=46	=46	=46	=46
8Bn) 8G] 8F 8D\)	8dd\	.	2ryy	.
8r	8r	.	.	.
(>4c (>4G (<4E-\	(>16cc\LL	.	.	.
.	16dd\J	.	.	.
.	8cc\J)	.	.	.
=47	=47	=47	=47	=47
2e-) 2c) 2F\)	(>16a\LL	.	2ryy	.
.	16b-\	.	.	.
.	16cc\	.	.	.
.	16dd\JJ	.	.	.
.	16ee-\LL	.	.	.
.	16ff\	.	.	.
.	16gg\	.	.	.
.	16aa\JJ)	.	.	.
=	=	=	=	=
4d 4B-\	4bb-\	.	4ryy	.
8rBB	8r	.	8ryy	.
!!LO:PB:g=original
=48||	=48||	=48||	=48||	=48||
!	!LO:TX:a:i:t=Allegretto.	!	!	!
8r	8ff\	.	8ryy	.
=49	=49	=49	=49	=49
8F\L	(>16gg\LL	.	2ryy	.
.	16ff\JJ)	.	.	.
8fJ 8e- 8A\	4cc\	.	.	.
*rep	*	*	*	*
8F\L	.	.	.	.
8fJ 8e- 8A\	8ff\	.	.	.
*Xrep	*	*	*	*
=50	=50	=50	=50	=50
8F\L	(>16gg\LL	.	2ryy	.
.	16ff\JJ)	.	.	.
8fJ 8d 8B-\	4dd\	.	.	.
*rep	*	*	*	*
8F\L	.	.	.	.
8fJ 8d 8B-\	8bb-\	.	.	.
*Xrep	*	*	*	*
=51	=51	=51	=51	=51
8F\L	(>16bb-\LL	.	2ryy	.
.	16aa\J)	.	.	.
8fJ 8e- 8A\	8ccc'>\J	.	.	.
*rep	*	*	*	*
8F\L	8.ff\L	.	.	.
8fJ 8e- 8A\	.	.	.	.
.	16ee-\Jk	.	.	.
*Xrep	*	*	*	*
=52	=52	=52	=52	=52
8dL 8B-\	(>16dd\LL	.	2ryy	.
.	16ee-\	.	.	.
8e-J 8A 8F\	16cc\	.	.	.
.	16dd\JJ)	.	.	.
8d 8B-\	8b-\	.	.	.
8r	8ff\	.	.	.
!!LO:LB:g=original
=53	=53	=53	=53	=53
8F\L	(>16gg-X\LL	.	2ryy	.
.	16ff\JJ)	.	.	.
8fJ 8e- 8A\	4cc'>\	.	.	.
*rep	*	*	*	*
8F\L	.	.	.	.
8fJ 8e- 8A\	8ff'>\	.	.	.
*Xrep	*	*	*	*
=54	=54	=54	=54	=54
8B-\L	(>16ggn\LL	.	2ryy	.
.	16ff\JJ)	.	.	.
8fJ 8d\	4dd'>\	.	.	.
*rep	*	*	*	*
8B-\L	.	.	.	.
8fJ 8d\	8bb-'>\	.	.	.
*Xrep	*	*	*	*
=55	=55	=55	=55	=55
*^	*	*	*	*
4E-/	8E-\L	8gg'>\L	.	2ryy	.
.	8cJ 8G\	(>16bbn\L	.	.	.
.	.	16ccc\JJ)	.	.	.
4F/	8F\L	8ff\L	.	.	.
.	8e-J 8c\	8aaT\J	.	.	.
*v	*v	*	*	*	*
=56	=56	=56	=56	=56
.	(<8qccc/	.	.	.
8dL 8B-\	16bb-\LL)	.	2ryy	.
.	16aa'>\J	.	.	.
8F\	8bb-'>\J	.	.	.
8dJ 8B-\	8b-\	.	.	.
8r	8r	.	.	.
==	==	==	==	==
*-	*-	*-	*-	*-
!!!system-decoration: s1{(s2,s3)}
!!!RDF**kern: > = above
!!!RDF**kern: < = below
!!!EED: Antoni Szymański
!!!EST: 2021-06-05
!!!ENC: Andrzej Gręziak
!!!END: 2021-05-20
